X: 8889
T: Curious Cat, The
R: jig
M: 6/8
K: Edorian
A|:E2B BAB|dBA B2 F/E/|D2d dcd|AFD F2A|
E2B BAB|dBA B2 F/E/|D2d dcd|AFD E3:|
|:B2d ~e3|fed fed|e2d dBA|Bde d2 B/A/|
B2d ~e3|def af/e/d|ed/c/B AFA|B2 F/E/ E3:|

